X: 470
T: Chinese Breakdown
C:Lyman Enloe's version
B: jims roots
M:C|
L:1/8
R: Reel
Q: 1/4=100
K:D
V:1 
|:(3ABc | "D"d2Ac BAFB | AF[FA][FA] [F2A] (3ABc | d2Ac BAFB | "A7"AG[AG][AG] [A2G] AB |
c2Ac B2AB | cBcd c3 B | cBAc BAFB | "D"AF[AF][AF] [A2F] (3ABc |
d2Ac BAFG | A2 AB AGFE | D2 [D2A][E2A][F2A] | "G"[G8B] |
"A7"[e3e][ef][e3e][ef] | [c2e] ([c2e] [ce])dcB | A2 eg fecA | "D"d2[d4f] :|
|: (3ABc | "D"d2[d2f][A2e][d2f] | f2 fe fafe | d2[d2f][A2e][d2f] | "A7"[c2e][c2e] [ce]dcB |
c2 ([c2a][ca]) [c2a][ca] | [c2a]([B2g] [Bg])agf | g2 e2 [e2c][e2A] | "D"f2 fe fafe |
d2 [d2f][A2e][d2f] | f2 fe fafe | d2 ef gfgd | "G"B8 |
"A7"[e3e][ef][e3e][ef] | [c2e]([c2e] [ce])ecB | A2eg fecA | "D"d2 [d4f] :|
% abcbook-tune_id 6298c24561bb3bdcbeae10cc


% abcbook-boost 0
% abcbook-tablature 
% abcbook-transpose 
% abcbook-lastupdated 1654178373704
% abcbook-soundfonts 
% abcbook-repeats 1


